X: 22969
T: Lass Of Carracastle, The
R: reel
M: 4/4
K: Dmajor
A2FA A2FA|BdAF GFEG|FDDD FGA2|1 Bdeg fedB:|2 Bdeg fdd4||
|:dfaf g2fg|efed cAA2|f2ff g2fg|a2ag fdd2|
dfaf g2fg|efed cAA2|B2Bd c2cB|AAag fdd2:|

